X:510
T:Recession, The
R:jig
C:Sylvain Barou
Z:id:hn-jig-510
M:6/8
L:1/8
K:Bdor
~B3 ABF | ~B3 ABF | ~B3 dBe- | edc BAF |
~B3 ABF | ~B3 BAF | DEF EFA | FAB AFE :|
|: a2f abg- | g2e gaf- | f2B ^dee | ^dBA ~B3 |
[1 a2f abg- | g2e gaf- | f2B ^dee | ^dBA Bdf :|
[2 a2f abg- | g2e ga=g- | =g2e gag | fed ced ||

